static/img/kroki/b3b080da9c070b42644264e503c9b25d.svg

<?xml version="1.0" encoding="us-ascii" standalone="no"?><svg xmlns="http://www.w3.org/2000/svg" xmlns:xlink="http://www.w3.org/1999/xlink" contentStyleType="text/css" height="152px" preserveAspectRatio="none" style="width:433px;height:152px;" version="1.1" viewBox="0 0 433 152" width="433px" zoomAndPan="magnify"><defs/><g><!--class azure_network_express_route_circuit--><g id="elem_azure_network_express_route_circuit"><rect codeLine="23" fill="#3D176E" height="39.7891" id="azure_network_express_route_circuit" rx="2.5" ry="2.5" style="stroke:#000D19;stroke-width:0.5;" width="353" x="40" y="7"/><ellipse cx="55" cy="26.8945" fill="#ADD1B2" rx="11" ry="11" style="stroke:#181818;stroke-width:1.0;"/><path d="M57.9688,32.5352 Q57.3906,32.832 56.75,32.9727 Q56.1094,33.1289 55.4063,33.1289 Q52.9063,33.1289 51.5781,31.4883 Q50.2656,29.832 50.2656,26.707 Q50.2656,23.582 51.5781,21.9258 Q52.9063,20.2695 55.4063,20.2695 Q56.1094,20.2695 56.75,20.4258 Q57.4063,20.582 57.9688,20.8789 L57.9688,23.5977 Q57.3438,23.0195 56.75,22.7539 Q56.1563,22.4727 55.5313,22.4727 Q54.1875,22.4727 53.5,23.5508 Q52.8125,24.6133 52.8125,26.707 Q52.8125,28.8008 53.5,29.8789 Q54.1875,30.9414 55.5313,30.9414 Q56.1563,30.9414 56.75,30.6758 Q57.3438,30.3945 57.9688,29.8164 L57.9688,32.5352 Z " fill="#000000"/><text fill="#D9B8FF" font-family="Helvetica" font-size="17" lengthAdjust="spacing" textLength="311" x="74" y="32.7798">azure_network_express_route_circuit</text></g><!--class azure_network_express_route_ports_location--><g id="elem_azure_network_express_route_ports_location"><rect codeLine="26" fill="#3D176E" height="39.7891" id="azure_network_express_route_ports_location" rx="2.5" ry="2.5" style="stroke:#000D19;stroke-width:0.5;" width="419" x="7" y="106.79"/><ellipse cx="22" cy="126.6845" fill="#ADD1B2" rx="11" ry="11" style="stroke:#181818;stroke-width:1.0;"/><path d="M24.9688,132.3252 Q24.3906,132.622 23.75,132.7627 Q23.1094,132.9189 22.4063,132.9189 Q19.9063,132.9189 18.5781,131.2783 Q17.2656,129.622 17.2656,126.497 Q17.2656,123.372 18.5781,121.7158 Q19.9063,120.0595 22.4063,120.0595 Q23.1094,120.0595 23.75,120.2158 Q24.4063,120.372 24.9688,120.6689 L24.9688,123.3877 Q24.3438,122.8095 23.75,122.5439 Q23.1563,122.2627 22.5313,122.2627 Q21.1875,122.2627 20.5,123.3408 Q19.8125,124.4033 19.8125,126.497 Q19.8125,128.5908 20.5,129.6689 Q21.1875,130.7314 22.5313,130.7314 Q23.1563,130.7314 23.75,130.4658 Q24.3438,130.1845 24.9688,129.6064 L24.9688,132.3252 Z " fill="#000000"/><text fill="#D9B8FF" font-family="Helvetica" font-size="17" lengthAdjust="spacing" textLength="377" x="41" y="132.5698">azure_network_express_route_ports_location</text></g><!--link azure_network_express_route_circuit to azure_network_express_route_ports_location--><g id="link_azure_network_express_route_circuit_azure_network_express_route_ports_location"><path codeLine="29" d="M216.5,47.22 C216.5,64.36 216.5,83.27 216.5,100.41 " fill="none" id="azure_network_express_route_circuit-to-azure_network_express_route_ports_location" style="stroke:#1A83AF;stroke-width:2.0;"/><polygon fill="#1A83AF" points="216.5,106.41,220.5,97.41,216.5,101.41,212.5,97.41,216.5,106.41" style="stroke:#1A83AF;stroke-width:2.0;"/></g><!--SRC=[bP9FIyD04CNl-HGBFHSIYwQz2B5Gz5B4UXC9sztPTaco4sOdrbRyxhPMPKti7w_pVZlllM6NLeE0gkQrgA2Q0_d85zRLacGbCY9SZR544ZrZf1caRN62Zay2Krc1k8No1TWgsIOUbrOL3hmN5u5q8rMn86oStgzdaivl9N0SKEDIUfynavqt344OFPeFZMcJxQMzWKxIA-XWI1he2udZM2UZDdBIwcZl7s9cDo2Iy6XJPEZ4x5XyKaTJxeWWPAVejtumuxtKshg5k0nc3_jCv81-pMTBgN6reuqiVMZZ6GYGrpMCEwrWDDGc_HE-EmH7QdSw8JSDGUw0LqX53gyrRVzFlkKPScL9DPR5MnIzdu7NIEpp4fLaYsx_wfpr_QTUaWq7sUIvV_qFW-W3]--></g></svg>

<svg xmlns="http://www.w3.org/2000/svg" width="433" height="152" viewBox="0 0 433 152"><rect width="353" height="39.789" x="40" y="7" fill="#3D176E" rx="2.5" ry="2.5" style="stroke:#000d19;stroke-width:.5"/><circle cx="55" cy="26.895" r="11" fill="#ADD1B2" style="stroke:#181818;stroke-width:1"/><path d="M57.969 32.535q-.578.297-1.219.438-.64.156-1.344.156-2.5 0-3.828-1.64-1.312-1.657-1.312-4.782t1.312-4.781q1.328-1.656 3.828-1.656.703 0 1.344.156.656.156 1.219.453v2.719q-.625-.578-1.219-.844-.594-.281-1.219-.281-1.343 0-2.031 1.078-.687 1.062-.687 3.156t.687 3.172q.688 1.062 2.031 1.062.625 0 1.219-.265.594-.281 1.219-.86z"/><text x="74" y="32.78" fill="#D9B8FF" font-family="Helvetica" font-size="17" textLength="311">azure_network_express_route_circuit</text><rect width="419" height="39.789" x="7" y="106.79" fill="#3D176E" rx="2.5" ry="2.5" style="stroke:#000d19;stroke-width:.5"/><circle cx="22" cy="126.684" r="11" fill="#ADD1B2" style="stroke:#181818;stroke-width:1"/><path d="M24.969 132.325q-.578.297-1.219.438-.64.156-1.344.156-2.5 0-3.828-1.64-1.312-1.657-1.312-4.782t1.312-4.781q1.328-1.656 3.828-1.656.703 0 1.344.156.656.156 1.219.453v2.719q-.625-.579-1.219-.844-.594-.281-1.219-.281-1.343 0-2.031 1.078-.687 1.062-.687 3.156t.687 3.172q.688 1.062 2.031 1.062.625 0 1.219-.265.594-.281 1.219-.86z"/><text x="41" y="132.57" fill="#D9B8FF" font-family="Helvetica" font-size="17" textLength="377">azure_network_express_route_ports_location</text><path fill="none" d="M216.5 47.22v53.19" style="stroke:#1a83af;stroke-width:2"/><path fill="#1A83AF" d="m216.5 106.41 4-9-4 4-4-4z" style="stroke:#1a83af;stroke-width:2"/></svg>
